!!!COM: Bach, Johann Sebastian
!!!OTA: Das wohltemperirte Clavier
!!!OPR: Das wohltemperierte Klavier
!!!OTL: Fuga 11, Vol. 1
!!!XEN: The Well-Tempered Clavier, Volume 1, Fugue 11.
!!!ONB: F major, 3-part
!!!SCT: BWV 856b
!!!YEC: Copyright 1994, David Huron
!!!YEM: Rights to all derivative electronic formats reserved.
**kern	**kern	**kern
*staff2	*staff1	*staff1
*clefF4	*clefG2	*clefG2
*k[b-]	*k[b-]	*k[b-]
*M3/8	*M3/8	*M3/8
*F:	*F:	*F:
*MM87	*MM87	*MM87
8r	8c	8r
=1	=1	=1
4.r	8d	4.r
.	8c	.
.	8B-	.
=2	=2	=2
4.r	8c	4.r
.	16E	.
.	16F	.
.	16G	.
.	16A	.
=3	=3	=3
4.r	8B-	4.r
.	16c	.
.	16B-	.
.	16A	.
.	16G	.
=4	=4	=4
4.r	16A	8r
.	16G	.
.	16F	8r
.	16G	.
.	16A	8f
.	16B-	.
=5	=5	=5
4.r	16c	8a
.	16B-	.
.	16A	8g
.	16B-	.
.	16c	8f
.	16d	.
=6	=6	=6
4.r	16e	8g
.	16g	.
.	16f	16Bn
.	16e	16c
.	16d	16d
.	16c	16e
=7	=7	=7
4.r	4.BnM	8f
.	.	16g
.	.	16f
.	.	16e
.	.	16d
=8	=8	=8
4.r	8c	16e
.	.	16d
.	8B-	16c
.	.	16d
.	8A	16e
.	.	16f
=9	=9	=9
8r	16B-	8g
.	16A	.
8r	16G	8f
.	16A	.
8C	16B-	8e
.	16c	.
=10	=10	=10
8D	4A	16f
.	.	16e
8C	.	16d
.	.	16e
8BB-	8d	16f
.	.	16g
=11	=11	=11
8C	8e	16a
.	.	16cc
16EE	8g	16b-
16FF	.	16a
16GG	8c	16g
16AA	.	16f
=12	=12	=12
8BB-	[4.c	4.eM
16C	.	.
16BB-	.	.
16AA	.	.
16GG	.	.
=13	=13	=13
16AA	4c]	8f
16GG	.	.
16FF	.	4a
16GG	.	.
16AA	8f	.
16BB-	.	.
=14	=14	=14
16C	4e	8g
16BBn	.	.
16AA	.	4cc
16BB	.	.
16C	8a	.
16D	.	.
=15	=15	=15
16E	4g	8bn
16G	.	.
16F	.	4ee
16E	.	.
16D	[8cc	.
16C	.	.
=16	=16	=16
4.BBnM	16cc]	[4.dd
.	16cc	.
.	16bn	.
.	16a	.
.	16g	.
.	16f	.
=17	=17	=17
8C	8.e	16dd]
.	.	16dd
16D	.	8cc
16E	16b-	.
8F	16a	8cc
.	16g	.
=18	=18	=18
4.B-	16f	8dd
.	16e	.
.	16d	8cc
.	16e	.
.	16f	8b-
.	16g	.
=19	=19	=19
16A	8a	8cc
16c	.	.
16B-	8r	16e
16A	.	16f
16G	8r	16g
16F	.	16a
=20	=20	=20
4.ET	4.r	8b-
.	.	16cc
.	.	16b-
.	.	16a
.	.	16g
=21	=21	=21
4F	8r	16a
.	.	16g
.	8r	16f
.	.	16g
8r	8f	16a
.	.	16b-
=22	=22	=22
4.r	8a	16cc
.	.	16b-
.	8g	16a
.	.	16b-
.	8f	16cc
.	.	16dd
=23	=23	=23
4.r	8g	16ee
.	.	16gg
.	16Bn	16ff
.	16c	16ee
.	16d	16dd
.	16e	16cc
=24	=24	=24
4.r	8f	4.bnM
.	16g	.
.	16f	.
.	16e	.
.	16d	.
=25	=25	=25
8r	16e	16cc
.	16d	16dd
8r	16c	16ee
.	16d	16ff
8c	16e	16gg
.	16c	16aa
=26	=26	=26
8d	4f	16b-
.	.	16cc
8c	.	16dd
.	.	16ee
8B-	8r	16ff
.	.	16gg
=27	=27	=27
8c	8r	16aa
.	.	16ccc
16E	8r	16bb-
16F	.	16aa
16G	8cc	16gg
16A	.	16ff
=28	=28	=28
8B-	8dd	8ff
16c	8cc	4eeM
16B-	.	.
16A	8b-	.
16G	.	.
=29	=29	=29
16A	8cc	8ff
16c	.	.
16B-	16e	8r
16A	16f	.
16G	16g	8r
16F	16a	.
=30	=30	=30
4.ET	8b-	[4.gg
.	16cc	.
.	16b-	.
.	16a	.
.	16g	.
=31	=31	=31
8F	[4.a	16gg]
.	.	16gg
8G	.	16ff
.	.	16ee
8A	.	16dd
.	.	16cc
=32	=32	=32
4D	8a]	[4.ff
.	16b-	.
.	16a	.
8r	16g	.
.	16f	.
=33	=33	=33
8E	[4.g	16ff]
.	.	16ff
8F	.	16ee
.	.	16dd
8G	.	16cc#
.	.	16bn
=34	=34	=34
4C#	8g]	[4.ee
.	16a	.
.	16g	.
8c#	16f	.
.	16e	.
=35	=35	=35
8d	16f	8ee]
.	16e	.
8cn	16f	8a
.	16g	.
8B-	16a	8dd
.	16g	.
=36	=36	=36
[4.A	16a	4cc#
.	16b-	.
.	16a	.
.	16g	.
.	16f	8aa
.	16e	.
=37	=37	=37
4.A_	16d	8bb-
.	16c#	.
.	16d	8aa
.	16f	.
.	16e	8gg
.	16d	.
=38	=38	=38
4.A_	8c#	8aa
.	8r	16cc#
.	.	16dd
.	8a	16ee
.	.	16ff
=39	=39	=39
4.A_	8b-	8gg
.	8a	16aa
.	.	16gg
.	8g	16ff
.	.	16ee
=40	=40	=40
4A]	8a	16ff
.	.	16aa
.	16c#	16gg
.	16d	16ff
8A	16e	16ee
.	16f	16dd
=41	=41	=41
8B-	8g	4.cc#
8A	16a	.
.	16g	.
8G	16f	.
.	16e	.
=42	=42	=42
8A	4f	16dd
.	.	16ccn
16C#	.	16b-
16D	.	16a
16E	8r	16g
16F	.	16f
=43	=43	=43
8G	[4.c#	8b-
16A	.	8a
16G	.	.
16F	.	8g
16E	.	.
=44	=44	=44
8.F	16c#]	[4.a
.	16A	.
.	16Bn	.
16G	16c#	.
16F	16d	.
16E	16e	.
=45	=45	=45
16D	16f	16a]
16G	16e	16b-
8A	4c#	8.eM
8AA	.	.
.	.	16d
=46	=46	=46
4DD	4d	16d
.	.	16e
.	.	16f
.	.	16g
8D	8r	16a
.	.	16b-
=47	=47	=47
8E-	4.r	16cc
.	.	16b-
8D	.	16cc
.	.	16dd
8C	.	16ee-
.	.	16dd
=48	=48	=48
8D	8r	16f#
.	.	16en
16FF#	8r	16d
16GG	.	16e
16AA	8d	16f#
16BB-	.	16g
=49	=49	=49
16C	8e-	[4.a
16BB-	.	.
16D	8d	.
16C	.	.
16BB-	8c	.
16AA	.	.
=50	=50	=50
8BB-	8d	16a]
.	.	16g
8r	16F#	16a
.	16G	16b-
8r	16A	16cc
.	16B-	16dd
=51	=51	=51
8F#	16c	8ee-
.	16B-	.
8r	16d	8dd
.	16c	.
8r	16B-	8cc
.	16A	.
=52	=52	=52
8G	16B-	8dd
.	16d	.
8r	16c	16f#
.	16B-	16g
8r	16A	16a
.	16G	16b-
=53	=53	=53
8E-	8F#	16cc
.	.	16b-
8r	8r	16dd
.	.	16cc
8r	8r	16b-
.	.	16a
=54	=54	=54
8D	16G	16b-
.	16A	16f#
8r	16B-	16g
.	16c	16a
8r	16d	16b-
.	16A	16cc#
=55	=55	=55
16r	8B-	16dd
16C	.	16gg
8D	8G	8b-M
8D	8F#	16a
.	.	16g
=56	=56	=56
8GG	16G	8g
.	16d	.
8AA	16g	[4b-
.	16f	.
8BB-	16e	.
.	16d	.
=57	=57	=57
8C	4.e	16b-]
.	.	16g
8D	.	16cc
.	.	16b-
8E	.	16a
.	.	16g
=58	=58	=58
8F	16r	[4.a
.	16c	.
8G	16f	.
.	16e-	.
8A	16d	.
.	16c	.
=59	=59	=59
[4.B-	4.d	16a]
.	.	16f
.	.	16b-
.	.	16a
.	.	16g
.	.	16f
=60	=60	=60
16B-]	8c	8e
16G	.	.
16c	8d	8f
16B-	.	.
16A	8e	8g
16G	.	.
=61	=61	=61
16F	8f	8a
16C	.	.
16F	8g	8b-
16E-	.	.
16D	8a	8cc
16C	.	.
=62	=62	=62
16BB-	[4.b-	8dd
16C	.	.
16BB-	.	8ee
16AA	.	.
16GG	.	8ff
16FF	.	.
=63	=63	=63
4EE	16b-]	[4.gg
.	16g	.
.	16cc	.
.	16b-	.
8r	16a	.
.	16g	.
=64	=64	=64
8FF	[4.a	16gg]
.	.	16cc
8GG	.	16ff
.	.	16ee-
8AA	.	16dd
.	.	16cc
=65	=65	=65
4BB-	8a]	16dd
.	.	16cc
.	8D	16ee-
.	.	16dd
8r	[8G	16cc
.	.	16b-
=66	=66	=66
4AA	16G]	8cc
.	16F	.
.	16B-	16en
.	16A	16f
8r	16G	16g
.	16F	16a
=67	=67	=67
4GG	8G	16b-
.	.	16a
.	16BB-	16cc
.	16C	16b-
8r	16D	16a
.	16E	16g
=68	=68	=68
8FF	[4.F	16a
.	.	16g
8GG	.	16b-
.	.	16a
8AA	.	16cc
.	.	16b-
=69	=69	=69
8BB-	4F]	16dd
.	.	16cc
8C	.	16ee
.	.	16dd
8D	[8B-	16ff
.	.	16ee
=70	=70	=70
8E	8B-]	16gg
.	.	16a
8C	8e	16b-
.	.	16g
8F	[8f	[8a
=71	=71	=71
8BB-	8f]	16a]
.	.	16b-
8C	4e	8.gM
8CC	.	.
.	.	16f
=72	=72	=72
4FF;	4f;	4f;
==	==	==
*-	*-	*-
!!!CDT: 1685/3/-1750/7/28
!!!OCY: Deutschland
!!!PPP: Coethen; Cothen; Co2then
!!!ODT: <1722//
!!!PDT: 1722
!!!AFR: fuga; fugue
!!!AST: polyphony
!!!AMT: simple triple
!!!SCA: Bach-Werke-Verzeichnis
!!!YOR: Bach Gesellschaft
!!!SMS: British Library, various
!!!AIN: cemba; clavi
!!!EEV: 1.0
!!!RDT: 1986 November 18
!!!YER: 1994 August 10
!!!EFL: 11/48
!!!VTS: 622749319
